X: 1045
T: McArdle's Favorite
R:double jig
N:"collected by J. O'Neill"
B:O'Neill's 1045
Z:Transcribed by henrik.norbeck@mailbox.swipnet.se
M:6/8
L:1/8
K:A
EAA cAA|eAA cBA|fga ecA|BcB {c}BAF|
EAA cAA|eAA cBA|fga ecA|BcB A2 z:|
(ea)(b c')af|.e(ce) aec|(ea)(b c')af|d'c'b c'af|
.e(ab c')af|.e(ce a)ec|(fg)(a e)cA|BcB A2 z:|


